X: 42258
T: We're No' Awa Tae Bide Awa'
R: polka
M: 2/4
K: Dmajor
|:DE|F3 A|GFED|F2 D2|D2 FA|
d3 e|dcBA|B4|A2 Bc|
d2 d2|d3F|G2 B2|A3 A|
B2A2|d2F2|E4|D2:|

